images/icon-why-us-4.svg

<svg width="48" height="48" viewBox="0 0 48 48" fill="none" xmlns="http://www.w3.org/2000/svg">
<path fill-rule="evenodd" clip-rule="evenodd" d="M27.4144 3.85049C24.9141 4.24109 22.6206 5.19192 20.6444 6.65709C19.7821 7.29636 17.9106 9.1681 17.6717 9.63021C17.3908 10.1734 17.7082 10.7315 18.2981 10.7315C18.5802 10.7315 18.7522 10.5795 19.6277 9.55677C20.5468 8.48321 22.1105 7.29765 23.5816 6.55923C24.5115 6.09245 26.2133 5.54304 27.2793 5.3656C28.4067 5.17788 30.5592 5.17283 31.6924 5.35514C34.668 5.83395 37.4558 7.36696 39.4046 9.59588C40.87 11.2718 41.935 13.3437 42.4557 15.5309C43.2149 18.7201 42.8643 21.7996 41.419 24.636C40.592 26.259 39.6238 27.4413 37.8405 29.0055C37.2769 29.4998 37.2036 29.8586 37.5876 30.2425C38.0017 30.6567 38.324 30.5333 39.4605 29.5259C41.725 27.5187 43.3342 24.7895 43.9675 21.8821C44.9271 17.4758 43.7571 12.6362 40.8724 9.07915C38.7805 6.49975 35.8956 4.73541 32.6034 4.02215C31.9085 3.87161 31.3098 3.82314 29.8349 3.79817C28.7999 3.78064 27.7106 3.80414 27.4144 3.85049ZM6.27493 8.90428C4.61955 9.18086 3.59951 10.1402 3.31411 11.6893C3.25894 11.9888 3.21378 12.7944 3.21387 13.4793C3.21433 20.948 6.59695 28.7339 12.4828 34.8137C17.5713 40.0699 23.9655 43.4919 30.5233 44.4686C31.8462 44.6656 35.4191 44.8025 36.2322 44.6873C37.8306 44.461 38.7467 43.5496 39.0697 41.8645C39.2569 40.8884 39.2537 35.2024 39.0655 34.3113C38.9029 33.5416 38.5637 32.8689 38.1209 32.4379C37.3995 31.7356 36.6211 31.5018 34.6083 31.3825C32.9426 31.2837 32.8119 31.2627 30.8074 30.7702C29.1558 30.3646 28.1436 30.313 27.4071 30.5971C27.142 30.6993 26.1005 31.4174 24.905 32.3219L22.8571 33.8717L22.1921 33.4877C20.0664 32.2598 17.9184 30.4274 16.4435 28.5837C15.6088 27.5403 15.3352 27.4202 14.8649 27.8904C14.4675 28.2878 14.5154 28.5176 15.1662 29.3373C16.5403 31.068 18.35 32.7158 20.288 34.0011C22.2314 35.2898 22.8933 35.5426 23.4665 35.2151C23.5738 35.1538 24.5573 34.422 25.652 33.5889C26.7466 32.7559 27.7741 32.0258 27.9353 31.9665C28.428 31.7854 28.8995 31.8308 30.5233 32.2162C32.4055 32.6628 33.5955 32.8531 34.5165 32.8547C36.1528 32.8577 36.976 33.1621 37.3797 33.9134C37.7574 34.6162 37.8063 35.2026 37.7585 38.4542C37.7035 42.1954 37.615 42.5872 36.7224 43.0426C35.7398 43.5439 31.4729 43.3059 28.4579 42.5816C22.1537 41.0672 15.8507 36.9382 11.4373 31.4317C6.95826 25.8433 4.55052 19.2888 4.69602 13.0801C4.72659 11.7771 4.74293 11.6709 4.97187 11.2813C5.24928 10.8094 5.69826 10.523 6.38618 10.3792C7.04629 10.241 12.9771 10.2184 13.4491 10.3523C14.1642 10.555 14.5337 10.8352 14.8077 11.3829C15.0396 11.8464 15.0735 12.0393 15.1541 13.3565C15.2608 15.1006 15.4331 16.1907 15.8021 17.4564C16.1439 18.6293 16.2351 19.6409 16.0408 20.1046C15.9645 20.2867 15.2311 21.3148 14.4111 22.3894C13.591 23.464 12.8637 24.4509 12.795 24.5827C12.2951 25.5408 13.3026 26.7213 14.0135 26.0104C14.201 25.8229 14.2404 25.7085 14.2093 25.4419C14.1729 25.1298 14.2648 24.9853 15.622 23.2211C17.3598 20.9621 17.544 20.62 17.6012 19.5457C17.6381 18.8536 17.6009 18.6002 17.2771 17.3409C16.8105 15.5255 16.7315 15.0393 16.6206 13.3018C16.4971 11.3648 16.2939 10.7077 15.579 9.93213C15.1448 9.46112 14.4027 9.05694 13.6971 8.90703C13.1212 8.78476 7.00379 8.78246 6.27493 8.90428ZM27.8781 11.6907C27.4869 11.8302 27.2472 12.0223 26.9563 12.4297C26.7799 12.6769 26.755 12.8609 26.7138 14.2198L26.6679 15.7344L25.1532 15.7803C23.5639 15.8285 23.4389 15.8591 23.0302 16.3003C22.615 16.7484 22.5501 16.9716 22.5086 18.0936C22.4385 19.9865 22.6477 20.6609 23.4471 21.119C23.7884 21.3147 23.9517 21.3368 25.2619 21.365L26.7017 21.3958L26.7307 22.8867C26.7579 24.287 26.7731 24.3972 26.9809 24.7C27.1025 24.8774 27.3472 25.122 27.5245 25.2437C27.8255 25.4501 27.9422 25.4669 29.2769 25.4951C30.8445 25.5281 31.2204 25.4626 31.6797 25.0761C32.2073 24.6322 32.3091 24.2558 32.3114 22.742L32.3134 21.3961L33.7592 21.3651C35.3861 21.3302 35.5857 21.2665 36.1132 20.6143L36.3983 20.2619L36.4271 18.6715C36.4599 16.862 36.3837 16.5746 35.7412 16.084C35.4097 15.8308 35.3762 15.8254 33.8815 15.7803L32.3593 15.7344L32.3134 14.2657C32.2632 12.6579 32.1987 12.4291 31.6713 11.9853C31.5164 11.8549 31.2361 11.7056 31.0483 11.6535C30.5427 11.5131 28.3024 11.5393 27.8781 11.6907ZM28.303 13.0986C28.2263 13.1473 28.1853 13.7098 28.1653 14.9873C28.1283 17.3397 28.3122 17.1573 25.9758 17.1573C24.5278 17.1573 24.2251 17.1806 24.1041 17.3015C23.9897 17.416 23.9599 17.6641 23.9599 18.5009C23.9599 19.0812 24.0026 19.636 24.0549 19.7336C24.1437 19.8996 24.2636 19.9112 25.8969 19.9112C27.6525 19.9112 27.9107 19.952 28.0563 20.2529C28.0997 20.3426 28.1562 21.2216 28.1819 22.2061L28.2284 23.9961H29.5136H30.7987L30.8446 22.1289C30.9038 19.7248 30.7223 19.9112 33.0045 19.9112C33.9288 19.9112 34.7504 19.8861 34.8303 19.8555C34.9526 19.8085 34.9755 19.607 34.9755 18.5735C34.9755 17.4552 34.9599 17.3389 34.798 17.2523C34.6939 17.1967 33.9174 17.1573 32.9227 17.1573H31.2251L31.0349 16.9154C30.8579 16.6903 30.8446 16.5545 30.8446 14.9601C30.8446 13.7499 30.8123 13.2144 30.7345 13.1366C30.611 13.0131 28.4895 12.98 28.303 13.0986Z" fill="#1E84B5"/>
<path fill-rule="evenodd" clip-rule="evenodd" d="M27.4146 3.85049C24.9143 4.24109 22.6209 5.19192 20.6447 6.65709C19.7824 7.29636 17.9109 9.1681 17.6719 9.63021C17.391 10.1734 17.7085 10.7315 18.2984 10.7315C18.5805 10.7315 18.7525 10.5795 19.628 9.55677C20.547 8.48321 22.1108 7.29765 23.5818 6.55923C24.5117 6.09245 26.2136 5.54304 27.2796 5.3656C28.4069 5.17788 30.5595 5.17283 31.6926 5.35514C34.6682 5.83395 37.4561 7.36696 39.4049 9.59588C40.8702 11.2718 41.9352 13.3437 42.456 15.5309C43.2152 18.7201 42.8646 21.7996 41.4192 24.636C40.5922 26.259 39.6241 27.4413 37.8407 29.0055C37.2772 29.4998 37.2038 29.8586 37.5878 30.2425C38.0019 30.6567 38.3242 30.5333 39.4608 29.5259C41.7253 27.5187 43.3345 24.7895 43.9677 21.8821C44.9274 17.4758 43.7574 12.6362 40.8727 9.07915C38.7807 6.49975 35.8958 4.73541 32.6036 4.02215C31.9087 3.87161 31.31 3.82314 29.8351 3.79817C28.8001 3.78064 27.7108 3.80414 27.4146 3.85049ZM27.8784 11.6907C27.4871 11.8302 27.2475 12.0223 26.9566 12.4297C26.7801 12.6769 26.7552 12.8609 26.714 14.2198L26.6681 15.7344L25.1535 15.7803C23.5642 15.8285 23.4392 15.8591 23.0304 16.3003C22.6152 16.7484 22.5503 16.9716 22.5088 18.0936C22.4388 19.9865 22.648 20.6609 23.4473 21.119C23.7886 21.3147 23.952 21.3368 25.2622 21.365L26.7019 21.3958L26.7309 22.8867C26.7582 24.287 26.7733 24.3972 26.9812 24.7C27.1028 24.8774 27.3474 25.122 27.5248 25.2437C27.8258 25.4501 27.9425 25.4669 29.2772 25.4951C30.8448 25.5281 31.2207 25.4626 31.68 25.0761C32.2075 24.6322 32.3093 24.2558 32.3116 22.742L32.3136 21.3961L33.7594 21.3651C35.3864 21.3302 35.5859 21.2665 36.1135 20.6143L36.3986 20.2619L36.4273 18.6715C36.4601 16.862 36.3839 16.5746 35.7414 16.084C35.4099 15.8308 35.3764 15.8254 33.8817 15.7803L32.3595 15.7344L32.3136 14.2657C32.2634 12.6579 32.199 12.4291 31.6715 11.9853C31.5167 11.8549 31.2363 11.7056 31.0486 11.6535C30.543 11.5131 28.3027 11.5393 27.8784 11.6907ZM28.3032 13.0986C28.2266 13.1473 28.1855 13.7098 28.1655 14.9873C28.1285 17.3397 28.3125 17.1573 25.9761 17.1573C24.5281 17.1573 24.2253 17.1806 24.1043 17.3015C23.99 17.416 23.9601 17.6641 23.9601 18.5009C23.9601 19.0812 24.0029 19.636 24.0551 19.7336C24.144 19.8996 24.2639 19.9112 25.8971 19.9112C27.6527 19.9112 27.911 19.952 28.0566 20.2529C28.1 20.3426 28.1564 21.2216 28.1821 22.2061L28.2287 23.9961H29.5138H30.799L30.8449 22.1289C30.904 19.7248 30.7225 19.9112 33.0048 19.9112C33.9291 19.9112 34.7507 19.8861 34.8305 19.8555C34.9529 19.8085 34.9757 19.607 34.9757 18.5735C34.9757 17.4552 34.9601 17.3389 34.7982 17.2523C34.6941 17.1967 33.9177 17.1573 32.923 17.1573H31.2254L31.0352 16.9154C30.8581 16.6903 30.8449 16.5545 30.8449 14.9601C30.8449 13.7499 30.8126 13.2144 30.7347 13.1366C30.6113 13.0131 28.4897 12.98 28.3032 13.0986Z" fill="#0E384C"/>
</svg>

<svg xmlns="http://www.w3.org/2000/svg" width="48" height="48" fill="none" viewBox="0 0 48 48"><path fill="#1e84b5" fill-rule="evenodd" d="M27.414 3.85c-2.5.391-4.793 1.342-6.77 2.807-.862.64-2.733 2.511-2.972 2.973-.281.543.036 1.101.626 1.101.282 0 .454-.152 1.33-1.174.919-1.074 2.482-2.26 3.954-2.998.93-.467 2.631-1.016 3.697-1.193 1.128-.188 3.28-.193 4.413-.01 2.976.478 5.764 2.011 7.713 4.24a14 14 0 0 1 3.05 5.935c.76 3.19.41 6.269-1.036 9.105-.827 1.623-1.795 2.805-3.578 4.37-.564.494-.637.853-.253 1.236.414.415.736.291 1.873-.716 2.264-2.007 3.873-4.736 4.507-7.644.96-4.406-.21-9.246-3.096-12.803-2.091-2.58-4.976-4.344-8.269-5.057-.695-.15-1.293-.199-2.768-.224-1.035-.017-2.124.006-2.42.052M6.274 8.904C4.62 9.181 3.6 10.14 3.315 11.69c-.055.3-.1 1.105-.1 1.79 0 7.469 3.383 15.255 9.269 21.335 5.088 5.256 11.482 8.678 18.04 9.655 1.323.197 4.896.334 5.71.218 1.598-.226 2.514-1.137 2.837-2.822.187-.977.184-6.663-.005-7.554-.162-.77-.501-1.442-.944-1.873-.721-.702-1.5-.936-3.513-1.056-1.665-.098-1.796-.12-3.8-.612-1.652-.405-2.664-.457-3.4-.173-.266.102-1.308.82-2.503 1.725l-2.048 1.55-.665-.384c-2.126-1.228-4.274-3.06-5.748-4.904-.835-1.044-1.109-1.164-1.58-.694-.397.398-.349.628.302 1.447 1.374 1.731 3.184 3.379 5.122 4.664 1.943 1.289 2.605 1.542 3.178 1.214.108-.061 1.091-.793 2.186-1.626s2.122-1.563 2.283-1.622c.493-.182.965-.136 2.588.25 1.883.446 3.073.636 3.994.638 1.636.003 2.459.307 2.863 1.058.377.703.426 1.29.378 4.541-.055 3.741-.143 4.133-1.036 4.589-.982.5-5.25.263-8.264-.461-6.304-1.515-12.607-5.644-17.02-11.15-4.48-5.589-6.887-12.143-6.742-18.352.03-1.303.047-1.41.276-1.799.277-.472.726-.758 1.414-.902.66-.138 6.591-.16 7.063-.027.715.203 1.085.483 1.359 1.03.232.464.265.657.346 1.975.107 1.744.28 2.834.648 4.1.342 1.172.433 2.184.239 2.648-.077.182-.81 1.21-1.63 2.284-.82 1.075-1.547 2.062-1.616 2.194-.5.958.508 2.138 1.219 1.427.187-.187.226-.302.195-.568-.036-.312.056-.457 1.413-2.22 1.738-2.26 1.922-2.602 1.98-3.676.036-.692-.001-.946-.325-2.205-.466-1.816-.546-2.302-.656-4.04-.124-1.936-.327-2.593-1.042-3.369-.434-.47-1.176-.875-1.882-1.025-.576-.122-6.693-.125-7.422-.003m21.604 2.787c-.391.14-.63.331-.922.739-.176.247-.201.43-.242 1.79l-.046 1.514-1.515.046c-1.59.049-1.714.08-2.123.52-.415.448-.48.672-.521 1.794-.07 1.892.139 2.567.938 3.025.341.196.505.218 1.815.246l1.44.03.029 1.492c.027 1.4.042 1.51.25 1.813.121.177.366.422.543.544.302.206.418.223 1.753.251 1.567.033 1.943-.032 2.403-.419.527-.444.63-.82.631-2.334l.002-1.346 1.446-.03c1.627-.036 1.827-.1 2.354-.752l.285-.352.03-1.59c.032-1.81-.044-2.097-.687-2.588-.331-.253-.365-.259-1.86-.304l-1.522-.046-.046-1.468c-.05-1.608-.114-1.837-.642-2.28a2 2 0 0 0-.623-.333c-.505-.14-2.746-.114-3.17.038m.425 1.408c-.077.048-.118.61-.138 1.888-.037 2.353.147 2.17-2.19 2.17-1.447 0-1.75.024-1.87.145-.115.114-.145.362-.145 1.199 0 .58.043 1.135.095 1.233.089.166.209.177 1.842.177 1.756 0 2.014.041 2.16.342.043.09.1.969.125 1.953l.046 1.79h2.57l.046-1.867c.059-2.404-.123-2.218 2.16-2.218.924 0 1.745-.025 1.825-.056.123-.047.145-.248.145-1.282 0-1.118-.015-1.234-.177-1.32-.104-.056-.88-.096-1.875-.096h-1.698l-.19-.242c-.177-.225-.19-.36-.19-1.955 0-1.21-.033-1.746-.11-1.823-.124-.124-2.245-.157-2.432-.038" clip-rule="evenodd"/><path fill="#0e384c" fill-rule="evenodd" d="M27.415 3.85c-2.5.391-4.794 1.342-6.77 2.807-.863.64-2.734 2.511-2.973 2.973-.281.543.037 1.101.626 1.101.283 0 .455-.152 1.33-1.174.919-1.074 2.483-2.26 3.954-2.998.93-.467 2.632-1.016 3.698-1.193 1.127-.188 3.28-.193 4.413-.01 2.975.478 5.763 2.011 7.712 4.24a14 14 0 0 1 3.051 5.935c.76 3.19.409 6.269-1.037 9.105-.827 1.623-1.795 2.805-3.578 4.37-.564.494-.637.853-.253 1.236.414.415.736.291 1.873-.716 2.264-2.007 3.874-4.736 4.507-7.644.96-4.406-.21-9.246-3.095-12.803-2.092-2.58-4.977-4.344-8.27-5.057-.694-.15-1.293-.199-2.768-.224-1.035-.017-2.124.006-2.42.052m.463 7.84c-.39.14-.63.332-.921.74-.177.247-.202.43-.243 1.79l-.046 1.514-1.514.046c-1.59.049-1.715.08-2.124.52-.415.448-.48.672-.521 1.794-.07 1.892.139 2.567.938 3.025.342.196.505.218 1.815.246l1.44.03.029 1.492c.027 1.4.042 1.51.25 1.813.122.177.366.422.544.544.3.206.418.223 1.752.251 1.568.033 1.944-.032 2.403-.419.528-.444.63-.82.632-2.334l.002-1.346 1.445-.03c1.627-.036 1.827-.1 2.355-.752l.285-.352.028-1.59c.033-1.81-.043-2.097-.686-2.588-.331-.253-.365-.259-1.86-.304l-1.522-.046-.045-1.468c-.05-1.608-.115-1.837-.642-2.28a2 2 0 0 0-.623-.333c-.506-.14-2.746-.114-3.17.038m.425 1.409c-.076.048-.117.61-.137 1.888-.038 2.353.146 2.17-2.19 2.17-1.448 0-1.75.024-1.872.145-.114.114-.144.362-.144 1.199 0 .58.043 1.135.095 1.233.089.166.209.177 1.842.177 1.756 0 2.014.041 2.16.342.043.09.1.969.125 1.953l.047 1.79h2.57l.046-1.867c.059-2.404-.122-2.218 2.16-2.218.924 0 1.746-.025 1.825-.056.123-.047.146-.248.146-1.282 0-1.118-.016-1.234-.178-1.32-.104-.056-.88-.096-1.875-.096h-1.698l-.19-.242c-.177-.225-.19-.36-.19-1.955 0-1.21-.032-1.746-.11-1.823-.124-.124-2.245-.157-2.432-.038" clip-rule="evenodd"/></svg>
